public/images/modules/WR.svg

<?xml version="1.0" encoding="iso-8859-1"?>
<!-- Uploaded to: SVG Repo, www.svgrepo.com, Generator: SVG Repo Mixer Tools -->
<svg version="1.1" id="Layer_1" xmlns="http://www.w3.org/2000/svg" xmlns:xlink="http://www.w3.org/1999/xlink" 
	 viewBox="0 0 512 512" xml:space="preserve">
<polygon style="fill:#F07B52;" points="17.351,170.311 256.534,8.008 495.716,170.311 495.716,503.458 17.351,503.458 "/>
<polygon style="fill:#E5563C;" points="273.618,19.601 256.534,8.008 17.351,170.311 17.351,503.458 51.52,503.458 51.52,170.311 
	"/>
<rect id="SVGCleanerId_0" x="102.774" y="213.022" style="fill:#74757B;" width="307.52" height="290.436"/>
<g>
	<rect id="SVGCleanerId_0_1_" x="102.774" y="213.022" style="fill:#74757B;" width="307.52" height="290.436"/>
</g>
<rect x="102.774" y="213.022" style="fill:#606268;" width="34.169" height="290.436"/>
<rect x="85.689" y="178.853" style="fill:#D7D8D9;" width="341.689" height="34.169"/>
<rect x="102.774" y="298.444" style="fill:#FDDD85;" width="102.507" height="102.507"/>
<rect x="102.774" y="298.444" style="fill:#FDD042;" width="25.627" height="102.507"/>
<rect x="136.943" y="298.444" style="fill:#E1A527;" width="34.169" height="51.253"/>
<rect x="102.774" y="400.951" style="fill:#FDDD85;" width="102.507" height="102.507"/>
<rect x="102.774" y="400.951" style="fill:#FDD042;" width="25.627" height="102.507"/>
<rect x="136.943" y="400.951" style="fill:#E1A527;" width="34.169" height="51.253"/>
<rect x="205.281" y="400.951" style="fill:#FDDD85;" width="102.507" height="102.507"/>
<rect x="205.281" y="400.951" style="fill:#FDD042;" width="25.627" height="102.507"/>
<rect x="239.449" y="400.951" style="fill:#E1A527;" width="34.169" height="51.253"/>
<path d="M499.946,163.684L260.897,1.382c-2.713-1.843-6.211-1.842-8.927,0L12.554,163.684c-2.196,1.491-3.745,3.972-3.745,6.627
	v333.147c0,4.423,4.119,8.542,8.542,8.542h478.365c4.424,0,7.474-4.119,7.474-8.542V170.311
	C503.191,167.656,502.143,165.175,499.946,163.684z M93.164,205.548v-18.152h325.673v18.152H93.164z M144.417,306.987h18.152v35.237
	h-18.152V306.987z M136.943,358.24h34.169c4.423,0,7.474-4.119,7.474-8.542v-42.711h18.152v86.49h-25.627h-34.169h-26.694v-86.49
	H128.4v42.711C128.4,354.12,132.52,358.24,136.943,358.24z M144.417,409.493h18.152v35.237h-18.152V409.493z M110.248,409.493H128.4
	v42.711c0,4.423,4.119,8.542,8.542,8.542h34.169c4.423,0,7.474-4.119,7.474-8.542v-42.711h18.152v86.49h-86.49V409.493z
	 M212.755,495.983v-86.49h18.152v42.711c0,4.423,4.119,8.542,8.542,8.542h34.169c4.424,0,7.474-4.119,7.474-8.542v-42.711h18.152
	v86.49H212.755z M246.924,409.493h18.152v35.237h-18.152V409.493z M487.174,495.983h-69.406V324.071
	c0-4.423-3.585-8.008-8.008-8.008c-4.424,0-8.008,3.586-8.008,8.008v171.912h-86.49v-95.032c0-4.423-3.051-7.474-7.474-7.474
	h-95.032v-95.032c0-4.423-3.052-7.474-7.474-7.474h-95.032v-69.406h291.504v68.338c0,4.423,3.585,8.008,8.008,8.008
	c4.424,0,8.008-3.586,8.008-8.008v-68.338h9.61c4.424,0,7.474-4.119,7.474-8.542v-34.169c0-4.423-3.051-7.474-7.474-7.474H85.689
	c-4.423,0-8.542,3.052-8.542,7.474v34.169c0,4.423,4.119,8.542,8.542,8.542h8.542v274.419H24.826V174.555L256,17.687
	l231.174,156.868V495.983z"/>
<path d="M214.357,76.88c0,4.423,3.586,8.008,8.008,8.008h68.338c4.424,0,8.008-3.586,8.008-8.008s-3.585-8.008-8.008-8.008h-68.338
	C217.942,68.872,214.357,72.457,214.357,76.88z"/>
<path d="M290.703,103.041h-68.338c-4.423,0-8.008,3.586-8.008,8.008c0,4.423,3.586,8.008,8.008,8.008h68.338
	c4.424,0,8.008-3.586,8.008-8.008C298.711,106.626,295.127,103.041,290.703,103.041z"/>
<path d="M290.703,137.21h-68.338c-4.423,0-8.008,3.586-8.008,8.008s3.586,8.008,8.008,8.008h68.338c4.424,0,8.008-3.586,8.008-8.008
	S295.127,137.21,290.703,137.21z"/>
<path d="M136.943,383.867h34.169c4.423,0,8.008-3.586,8.008-8.008c0-4.423-3.586-8.008-8.008-8.008h-34.169
	c-4.423,0-8.008,3.586-8.008,8.008C128.934,380.281,132.52,383.867,136.943,383.867z"/>
<path d="M171.112,470.357h-34.169c-4.423,0-8.008,3.586-8.008,8.008c0,4.423,3.586,8.008,8.008,8.008h34.169
	c4.423,0,8.008-3.586,8.008-8.008C179.12,473.942,175.534,470.357,171.112,470.357z"/>
<path d="M273.618,470.357h-34.169c-4.423,0-8.008,3.586-8.008,8.008c0,4.423,3.586,8.008,8.008,8.008h34.169
	c4.424,0,8.008-3.586,8.008-8.008C281.627,473.942,278.042,470.357,273.618,470.357z"/>
</svg>

<?xml version="1.0" encoding="UTF-8" standalone="no"?><!-- Generator: Gravit.io --><svg xmlns="http://www.w3.org/2000/svg" xmlns:xlink="http://www.w3.org/1999/xlink" style="isolation:isolate" viewBox="0 0 512 512" width="512pt" height="512pt"><defs><clipPath id="_clipPath_4b6lIrax6TsGbfxoyu0T1voGMS2eXZfx"><rect width="512" height="512"/></clipPath></defs><g clip-path="url(#_clipPath_4b6lIrax6TsGbfxoyu0T1voGMS2eXZfx)"><path d=" M 17.351 170.311 L 256.534 8.008 L 495.716 170.311 L 495.716 503.458 L 17.351 503.458 L 17.351 170.311 Z " fill="rgb(27,76,245)"/><path d=" M 273.618 19.601 L 256.534 8.008 L 17.351 170.311 L 17.351 503.458 L 51.52 503.458 L 51.52 170.311 L 273.618 19.601 Z " fill="rgb(23,46,182)"/><rect x="102.774" y="213.022" width="307.52" height="290.436" transform="matrix(1,0,0,1,0,0)" fill="rgb(116,117,123)"/><g><rect x="102.774" y="213.022" width="307.52" height="290.436" transform="matrix(1,0,0,1,0,0)" fill="rgb(116,117,123)"/></g><rect x="102.774" y="213.022" width="34.169" height="290.436" transform="matrix(1,0,0,1,0,0)" fill="rgb(96,98,104)"/><rect x="85.689" y="178.853" width="341.689" height="34.169" transform="matrix(1,0,0,1,0,0)" fill="rgb(215,216,217)"/><rect x="102.774" y="298.444" width="102.507" height="102.507" transform="matrix(1,0,0,1,0,0)" fill="rgb(253,221,133)"/><rect x="102.774" y="298.444" width="25.627" height="102.507" transform="matrix(1,0,0,1,0,0)" fill="rgb(253,208,66)"/><rect x="136.943" y="298.444" width="34.169" height="51.253" transform="matrix(1,0,0,1,0,0)" fill="rgb(225,165,39)"/><rect x="102.774" y="400.951" width="102.507" height="102.507" transform="matrix(1,0,0,1,0,0)" fill="rgb(253,221,133)"/><rect x="102.774" y="400.951" width="25.627" height="102.507" transform="matrix(1,0,0,1,0,0)" fill="rgb(253,208,66)"/><rect x="136.943" y="400.951" width="34.169" height="51.253" transform="matrix(1,0,0,1,0,0)" fill="rgb(225,165,39)"/><rect x="205.281" y="400.951" width="102.507" height="102.507" transform="matrix(1,0,0,1,0,0)" fill="rgb(253,221,133)"/><rect x="205.281" y="400.951" width="25.627" height="102.507" transform="matrix(1,0,0,1,0,0)" fill="rgb(253,208,66)"/><rect x="239.449" y="400.951" width="34.169" height="51.253" transform="matrix(1,0,0,1,0,0)" fill="rgb(225,165,39)"/><path d=" M 499.946 163.684 L 260.897 1.382 C 258.184 -0.461 254.686 -0.46 251.97 1.382 L 12.554 163.684 C 10.358 165.175 8.809 167.656 8.809 170.311 L 8.809 503.458 C 8.809 507.881 12.928 512 17.351 512 L 495.716 512 C 500.14 512 503.19 507.881 503.19 503.458 L 503.19 170.311 C 503.191 167.656 502.143 165.175 499.946 163.684 Z  M 93.164 205.548 L 93.164 187.396 L 418.837 187.396 L 418.837 205.548 L 93.164 205.548 L 93.164 205.548 Z  M 144.417 306.987 L 162.569 306.987 L 162.569 342.224 L 144.417 342.224 L 144.417 306.987 L 144.417 306.987 Z  M 136.943 358.24 L 171.112 358.24 C 175.535 358.24 178.586 354.121 178.586 349.698 L 178.586 306.987 L 196.738 306.987 L 196.738 393.477 L 171.111 393.477 L 136.942 393.477 L 110.248 393.477 L 110.248 306.987 L 128.4 306.987 L 128.4 349.698 C 128.4 354.12 132.52 358.24 136.943 358.24 Z  M 144.417 409.493 L 162.569 409.493 L 162.569 444.73 L 144.417 444.73 L 144.417 409.493 L 144.417 409.493 Z  M 110.248 409.493 L 128.4 409.493 L 128.4 452.204 C 128.4 456.627 132.519 460.746 136.942 460.746 L 171.111 460.746 C 175.534 460.746 178.585 456.627 178.585 452.204 L 178.585 409.493 L 196.737 409.493 L 196.737 495.983 L 110.247 495.983 L 110.247 409.493 L 110.248 409.493 Z  M 212.755 495.983 L 212.755 409.493 L 230.907 409.493 L 230.907 452.204 C 230.907 456.627 235.026 460.746 239.449 460.746 L 273.618 460.746 C 278.042 460.746 281.092 456.627 281.092 452.204 L 281.092 409.493 L 299.244 409.493 L 299.244 495.983 L 212.755 495.983 L 212.755 495.983 Z  M 246.924 409.493 L 265.076 409.493 L 265.076 444.73 L 246.924 444.73 L 246.924 409.493 L 246.924 409.493 Z  M 487.174 495.983 L 417.768 495.983 L 417.768 324.071 C 417.768 319.648 414.183 316.063 409.76 316.063 C 405.336 316.063 401.752 319.649 401.752 324.071 L 401.752 495.983 L 315.262 495.983 L 315.262 400.951 C 315.262 396.528 312.211 393.477 307.788 393.477 L 212.756 393.477 L 212.756 298.445 C 212.756 294.022 209.704 290.971 205.282 290.971 L 110.25 290.971 L 110.25 221.565 L 401.754 221.565 L 401.754 289.903 C 401.754 294.326 405.339 297.911 409.762 297.911 C 414.186 297.911 417.77 294.325 417.77 289.903 L 417.77 221.565 L 427.38 221.565 C 431.804 221.565 434.854 217.446 434.854 213.023 L 434.854 178.854 C 434.854 174.431 431.803 171.38 427.38 171.38 L 85.689 171.38 C 81.266 171.38 77.147 174.432 77.147 178.854 L 77.147 213.023 C 77.147 217.446 81.266 221.565 85.689 221.565 L 94.231 221.565 L 94.231 495.984 L 24.826 495.984 L 24.826 174.555 L 256 17.687 L 487.174 174.555 L 487.174 495.983 L 487.174 495.983 Z " fill="rgb(0,0,0)"/><path d=" M 214.357 76.88 C 214.357 81.303 217.943 84.888 222.365 84.888 L 290.703 84.888 C 295.127 84.888 298.711 81.302 298.711 76.88 C 298.711 72.458 295.126 68.872 290.703 68.872 L 222.365 68.872 C 217.942 68.872 214.357 72.457 214.357 76.88 Z " fill="rgb(0,0,0)"/><path d=" M 290.703 103.041 L 222.365 103.041 C 217.942 103.041 214.357 106.627 214.357 111.049 C 214.357 115.472 217.943 119.057 222.365 119.057 L 290.703 119.057 C 295.127 119.057 298.711 115.471 298.711 111.049 C 298.711 106.626 295.127 103.041 290.703 103.041 Z " fill="rgb(0,0,0)"/><path d=" M 290.703 137.21 L 222.365 137.21 C 217.942 137.21 214.357 140.796 214.357 145.218 C 214.357 149.64 217.943 153.226 222.365 153.226 L 290.703 153.226 C 295.127 153.226 298.711 149.64 298.711 145.218 C 298.711 140.796 295.127 137.21 290.703 137.21 Z " fill="rgb(0,0,0)"/><path d=" M 136.943 383.867 L 171.112 383.867 C 175.535 383.867 179.12 380.281 179.12 375.859 C 179.12 371.436 175.534 367.851 171.112 367.851 L 136.943 367.851 C 132.52 367.851 128.935 371.437 128.935 375.859 C 128.934 380.281 132.52 383.867 136.943 383.867 Z " fill="rgb(0,0,0)"/><path d=" M 171.112 470.357 L 136.943 470.357 C 132.52 470.357 128.935 473.943 128.935 478.365 C 128.935 482.788 132.521 486.373 136.943 486.373 L 171.112 486.373 C 175.535 486.373 179.12 482.787 179.12 478.365 C 179.12 473.942 175.534 470.357 171.112 470.357 Z " fill="rgb(0,0,0)"/><path d=" M 273.618 470.357 L 239.449 470.357 C 235.026 470.357 231.441 473.943 231.441 478.365 C 231.441 482.788 235.027 486.373 239.449 486.373 L 273.618 486.373 C 278.042 486.373 281.626 482.787 281.626 478.365 C 281.627 473.942 278.042 470.357 273.618 470.357 Z " fill="rgb(0,0,0)"/></g></svg>
